src/basic/800/u29C0-left.svg

<svg width="15" height="16" viewBox="0 0 15 16" fill="none" xmlns="http://www.w3.org/2000/svg">
<path fill-rule="evenodd" clip-rule="evenodd" d="M13.0247,8.00398c0,-3.32054 -2.6918,-6.01237 -6.01233,-6.01237c-3.32054,0 -6.01237,2.69183 -6.01237,6.01237c0,3.32052 2.69183,6.01232 6.01237,6.01232c3.32053,0 6.01233,-2.6918 6.01233,-6.01232zM7.01237,0.99161c3.87283,0 7.01233,3.13954 7.01233,7.01237c0,3.87282 -3.1395,7.01232 -7.01233,7.01232c-3.87283,0 -7.01237,-3.1395 -7.01237,-7.01232c0,-3.87283 3.13954,-7.01237 7.01237,-7.01237zM6.89323,6.11561l0.3254,-0.37963l0.75925,0.65079l-0.32539,0.37963l-1.28406,1.49807l1.28406,1.49807l0.32539,0.37966l-0.75925,0.6508l-0.3254,-0.3797l-1.56297,-1.82343l-0.27891,-0.3254l0.27891,-0.3254z" fill="black"/>
</svg>

<svg width="15" height="16" viewBox="0 0 15 16" fill="none" xmlns="http://www.w3.org/2000/svg">
<path fill-rule="evenodd" clip-rule="evenodd" d="M13.0247 8.00398C13.0247 4.68344 10.3329 1.99161 7.01237 1.99161C3.69183 1.99161 0.999997 4.68344 0.999997 8.00398C0.999997 11.3245 3.69183 14.0163 7.01237 14.0163C10.3329 14.0163 13.0247 11.3245 13.0247 8.00398ZM7.01237 0.991608C10.8852 0.991608 14.0247 4.13115 14.0247 8.00398C14.0247 11.8768 10.8852 15.0163 7.01237 15.0163C3.13954 15.0163 -2.86102e-06 11.8768 -2.86102e-06 8.00398C-2.86102e-06 4.13115 3.13954 0.991608 7.01237 0.991608ZM6.89323 6.11561L7.21863 5.73598L7.97788 6.38677L7.65249 6.7664L6.36843 8.26447L7.65249 9.76254L7.97788 10.1422L7.21863 10.793L6.89323 10.4133L5.33026 8.58987L5.05135 8.26447L5.33026 7.93907L6.89323 6.11561Z" fill="black"/>
</svg>
